X:1
T:E minor           Daniel Belknap, 1806
T:Anne Steele, 1760 God the only refuge of the troubled mind 86. 86. (C. M.)
T:Randolph
T:Treble-Tenor-Bass transcribed from The Village Compilation , 1806 ; Counter part written by B. C. Johnston, 2017.
%%score [ 1 2 3 4 ]
L:1/8
Q:1/4=100
M:4/4
K:G
V:1 treble nm="Tr." snm="Tr."
V:2 treble nm="C." snm="C."
V:3 treble-8 nm="T." snm="T."
V:4 bass nm="B." snm="B."
V:1
"^1. Thou refuge  of my  wea–ry     soul,   On  thee, when sor – rows     rise;   On thee, when waves of trouble roll,   My   fain – ting  hope  re  – lies.    To       thee  I   tell  each" G4 d2 e2 | %1
 B2 B2 B2 ^d2 | e6 B2 | d2 d2 d2 c2 | B6 e2 | B3 A G2 c2 | B2 G2 A4- | A4 e4 | e2 ^de B2 B2 | %9
 B6 ^d2 |: e2 e2 B2 G2 | %11
"^1. ri–sing grief,  For thou alone canst heal; ________ Thy word can bring a sweet relief  For   eve–ry  pain  I      feel. ______________       To        feel. _______________" A2 e2 ^d2 B2 | %12
 c2 c2 B2 e2 | (B3 A G4- | G6) e2 | d2 c2 B2 B2 | A2 B2 e2 fe | d2 c2 B2 ge |1 (d>c B>^A B4- | %19
 B6) ^d2 :|2 (d>c B>^A B4- | B8) |] %22
V:2
"^2. While hope revives, though pressed with fears,  And I can say, my God,  Beneath  thy  feet I spread my cares,  And  pour   my   woes  a – broad.  But  O! when  gloomy" E4 G2 A2 | %1
 B2 B2 G2 B2 | B6 B2 | AG A2 d2 c2 | B6 B2 | G3 A B2 c2 | B2 dB d4- | d4 c4 | B2 G2 G2 FE | %9
 E6 z2 |: z8 | %11
"^2. doubts prevail,  I  fear  to call thee mine; _______  The springs of comfort seem to fail,  And all my hopes de–cline. ____________        But     – cline. _____________" z4 z2 B2 | %12
 A2 A2 B2 A2 | B8- | B6 B2 | d2 c2 B2 BG | A2 B2 A2 FA | G2 A2 B2 GA |1 (B>cB>^A B4- | B6) z2 :|2 %20
 (B>cB>^A B4- | B8) |] %22
V:3
"^3. Yet, gracious God, where shall I flee?  Thou  art  my    on –  ly     trust,  And still my soul would cleave to thee,  Though  prostrate  in  the    dust.    Hast  thou  not  bid  me" e4 B2 A2 | %1
 e2 f2 g2 fd | B6 B2 | AG A2 B2 e^d | e6 e2 | G3 A B2 e2 | e2 dB d4- | d4 c4 | B2 e2 G2 FE | %9
 E6 z2 |: z8 | %11
"^3. seek thy face?  And shall I seek in vain? _________  And can the ear of sovereign grace  Be deaf when I com–plain? _____________    Hast      – plain? ____________" z4 z2 ^d2 | %12
 e2 e2 ^d2 c2 | B8- | B6 B2 | G2 A2 g2 fe | d2 B2 A2 d2 | G2 A2 B2 d2 |1 (g>fe>^d e4- | e6) z2 :|2 %20
 (g>fe>^d e4- | e8) |] %22
V:4
"^4. No,  still  the  ear  of  sovereign grace  Attends  the  mourner's  prayer;    O   may  I     ev – er     find  ac –cess,       To  breathe  my  sorrows   there.    Thy  mer – cy–seat   is" E,4 G,2 F,2 | %1
 E,2 B,2 G,2 B,2 | E,6 G,2 | D,2 D,>C, B,,2 B,,2 | E,6 E,2 | E,3 F, G,2 A,2 | G,2 G,2 D,4- | %7
 D,4 E,4 | E,2 G,2 B,,2 B,,2 | E,6 B,2 |: A,2 A,2 G,2 G,E, | %11
"^4. o – pen   still;   Here  let my soul  retreat, ________ With humble hope attend thy will,  And wait beneath thy feet. _____________     Thy        feet. _____________" D,2 B,,2 B,,2 B,,2 | %12
 A,,2 A,,2 B,,2 A,2 | (G,3 F, E,4- | E,6) E,2 | B,2 A,2 G,2 B,,2 | D,2 G,2 A,2 F,2 | %17
 B,2 A,2 G,2 F,E, |1 (B,,4 E,4- | E,6) B,2 :|2 (B,,4 E,4- | E,8) |] %22

